humanity-icon-theme/Humanity/apps/24/accessories-dictionary.svg

<?xml version="1.0" encoding="UTF-8" standalone="no"?>
<!-- Created with Inkscape (http://www.inkscape.org/) -->

<svg
   xmlns:dc="http://purl.org/dc/elements/1.1/"
   xmlns:cc="http://creativecommons.org/ns#"
   xmlns:rdf="http://www.w3.org/1999/02/22-rdf-syntax-ns#"
   xmlns:svg="http://www.w3.org/2000/svg"
   xmlns="http://www.w3.org/2000/svg"
   xmlns:xlink="http://www.w3.org/1999/xlink"
   xmlns:sodipodi="http://sodipodi.sourceforge.net/DTD/sodipodi-0.dtd"
   xmlns:inkscape="http://www.inkscape.org/namespaces/inkscape"
   version="1.0"
   width="24"
   height="24"
   id="svg5526"
   inkscape:version="0.47pre4 r22446"
   sodipodi:docname="accessories-dictionary.svg">
  <metadata
     id="metadata48">
    <rdf:RDF>
      <cc:Work
         rdf:about="">
        <dc:format>image/svg+xml</dc:format>
        <dc:type
           rdf:resource="http://purl.org/dc/dcmitype/StillImage" />
      </cc:Work>
    </rdf:RDF>
  </metadata>
  <sodipodi:namedview
     pagecolor="#ffffff"
     bordercolor="#666666"
     borderopacity="1"
     objecttolerance="10"
     gridtolerance="10"
     guidetolerance="10"
     inkscape:pageopacity="0"
     inkscape:pageshadow="2"
     inkscape:window-width="1280"
     inkscape:window-height="689"
     id="namedview46"
     showgrid="false"
     inkscape:zoom="6.9532167"
     inkscape:cx="-3.559322"
     inkscape:cy="11.79661"
     inkscape:window-x="0"
     inkscape:window-y="24"
     inkscape:window-maximized="1"
     inkscape:current-layer="svg5526" />
  <defs
     id="defs5528">
    <linearGradient
       id="linearGradient3628">
      <stop
         id="stop3630"
         style="stop-color:#791235;stop-opacity:1"
         offset="0" />
      <stop
         id="stop3632"
         style="stop-color:#dd3b27;stop-opacity:1"
         offset="1" />
    </linearGradient>
    <linearGradient
       id="linearGradient8997">
      <stop
         id="stop8999"
         style="stop-color:#cdcdcd;stop-opacity:1"
         offset="0" />
      <stop
         id="stop3642"
         style="stop-color:#cdcdcd;stop-opacity:0.24705882"
         offset="1" />
    </linearGradient>
    <linearGradient
       id="linearGradient8867">
      <stop
         id="stop8869"
         style="stop-color:#eeeeee;stop-opacity:1"
         offset="0" />
      <stop
         id="stop8871"
         style="stop-color:#d9d9da;stop-opacity:1"
         offset="1" />
    </linearGradient>
    <linearGradient
       id="linearGradient5060">
      <stop
         id="stop5062"
         style="stop-color:#000000;stop-opacity:1"
         offset="0" />
      <stop
         id="stop5064"
         style="stop-color:#000000;stop-opacity:0"
         offset="1" />
    </linearGradient>
    <linearGradient
       id="linearGradient5048">
      <stop
         id="stop5050"
         style="stop-color:#000000;stop-opacity:0"
         offset="0" />
      <stop
         id="stop5056"
         style="stop-color:#000000;stop-opacity:1"
         offset="0.5" />
      <stop
         id="stop5052"
         style="stop-color:#000000;stop-opacity:0"
         offset="1" />
    </linearGradient>
    <linearGradient
       x1="302.85715"
       y1="366.64789"
       x2="302.85715"
       y2="609.50507"
       id="linearGradient3010"
       xlink:href="#linearGradient5048"
       gradientUnits="userSpaceOnUse"
       gradientTransform="matrix(2.774389,0,0,1.969706,-1892.179,-872.8854)" />
    <radialGradient
       cx="605.71429"
       cy="486.64789"
       r="117.14286"
       fx="605.71429"
       fy="486.64789"
       id="radialGradient3012"
       xlink:href="#linearGradient5060"
       gradientUnits="userSpaceOnUse"
       gradientTransform="matrix(2.774389,0,0,1.969706,-1891.633,-872.8854)" />
    <radialGradient
       cx="605.71429"
       cy="486.64789"
       r="117.14286"
       fx="605.71429"
       fy="486.64789"
       id="radialGradient3014"
       xlink:href="#linearGradient5060"
       gradientUnits="userSpaceOnUse"
       gradientTransform="matrix(-2.774389,0,0,1.969706,112.7623,-872.8854)" />
    <linearGradient
       x1="4.2847428"
       y1="0.00031490001"
       x2="22.900433"
       y2="17.016289"
       id="linearGradient2859"
       xlink:href="#linearGradient8997"
       gradientUnits="userSpaceOnUse"
       gradientTransform="matrix(1.0137415,0,0,0.99900262,-1.2082487,1.000184)" />
    <radialGradient
       cx="17.949392"
       cy="25.435272"
       r="13.427935"
       fx="17.949392"
       fy="25.435272"
       id="radialGradient2863"
       xlink:href="#linearGradient8867"
       gradientUnits="userSpaceOnUse"
       gradientTransform="matrix(1.3584166,-1.4274682,2.3206991,2.463414,-66.63291,-25.281925)" />
    <linearGradient
       x1="23.637569"
       y1="38.423183"
       x2="23.637569"
       y2="36.402096"
       id="linearGradient2875"
       xlink:href="#linearGradient8867"
       gradientUnits="userSpaceOnUse"
       gradientTransform="matrix(0.46233336,0,0,0.32360991,1.3241971,7.6915802)" />
    <linearGradient
       x1="12.026385"
       y1="20.380196"
       x2="12.026385"
       y2="-0.17325033"
       id="linearGradient2877"
       xlink:href="#linearGradient3628"
       gradientUnits="userSpaceOnUse"
       gradientTransform="matrix(1.0099728,0,0,0.89808488,-0.14632166,2.196855)" />
    <linearGradient
       id="linearGradient3242-2">
      <stop
         offset="0"
         style="stop-color:#f8b17e;stop-opacity:1"
         id="stop3244" />
      <stop
         offset="0.31209752"
         style="stop-color:#e35d4f;stop-opacity:1"
         id="stop3246-9" />
      <stop
         offset="0.57054454"
         style="stop-color:#c6262e;stop-opacity:1"
         id="stop3248-3" />
      <stop
         offset="1"
         style="stop-color:#690b54;stop-opacity:1"
         id="stop3250-9" />
    </linearGradient>
    <linearGradient
       id="linearGradient2490">
      <stop
         id="stop2492"
         style="stop-color:#791235;stop-opacity:1"
         offset="0" />
      <stop
         id="stop2494"
         style="stop-color:#dd3b27;stop-opacity:1"
         offset="1" />
    </linearGradient>
    <radialGradient
       r="20.714195"
       fy="18.618757"
       fx="39.651478"
       cy="18.618757"
       cx="39.651478"
       gradientTransform="matrix(0.02471868,1.4485111,-2.3165826,1.6477221e-7,39.805615,-59.681192)"
       gradientUnits="userSpaceOnUse"
       id="radialGradient2951"
       xlink:href="#linearGradient3242-2"
       inkscape:collect="always" />
    <linearGradient
       gradientTransform="matrix(0.53870916,0,0,0.49660615,-0.77239239,-0.5200965)"
       y2="0.99999988"
       x2="24.008854"
       y1="38.246284"
       x1="24.008854"
       gradientUnits="userSpaceOnUse"
       id="linearGradient2953"
       xlink:href="#linearGradient2490"
       inkscape:collect="always" />
    <radialGradient
       r="20.714195"
       fy="18.618757"
       fx="39.651478"
       cy="18.618757"
       cx="39.651478"
       gradientTransform="matrix(0.03860465,1.7678884,-2.3167466,0.00233254,39.258069,-72.388399)"
       gradientUnits="userSpaceOnUse"
       id="radialGradient2951-8"
       xlink:href="#linearGradient3242-2-7"
       inkscape:collect="always" />
    <linearGradient
       id="linearGradient3242-2-7">
      <stop
         offset="0"
         style="stop-color:#f8b17e;stop-opacity:1"
         id="stop3244-0" />
      <stop
         offset="0.31209752"
         style="stop-color:#e35d4f;stop-opacity:1"
         id="stop3246-9-4" />
      <stop
         offset="0.57054454"
         style="stop-color:#c6262e;stop-opacity:1"
         id="stop3248-3-8" />
      <stop
         offset="1"
         style="stop-color:#690b54;stop-opacity:1"
         id="stop3250-9-0" />
    </linearGradient>
    <linearGradient
       gradientTransform="matrix(0.53870916,0,0,0.49660615,-0.77239239,-0.5200965)"
       y2="0.99999988"
       x2="24.008854"
       y1="38.246284"
       x1="24.008854"
       gradientUnits="userSpaceOnUse"
       id="linearGradient2953-4"
       xlink:href="#linearGradient2490-2"
       inkscape:collect="always" />
    <linearGradient
       id="linearGradient2490-2">
      <stop
         id="stop2492-9"
         style="stop-color:#791235;stop-opacity:1"
         offset="0" />
      <stop
         id="stop2494-6"
         style="stop-color:#dd3b27;stop-opacity:1"
         offset="1" />
    </linearGradient>
  </defs>
  <g
     transform="matrix(0.01073759,0,0,0.0073241,21.55039,21.600184)"
     id="g8875">
    <rect
       width="1339.6335"
       height="478.35718"
       x="-1559.2523"
       y="-150.69685"
       id="rect8877"
       style="opacity:0.40206185;fill:url(#linearGradient3010);fill-opacity:1;fill-rule:nonzero;stroke:none;stroke-width:1;marker:none;visibility:visible;display:inline;overflow:visible" />
    <path
       d="m -219.61876,-150.68038 c 0,0 0,478.33079 0,478.33079 142.874166,0.90045 345.40022,-107.16966 345.40014,-239.196175 0,-132.026537 -159.436816,-239.134595 -345.40014,-239.134615 z"
       id="path8879"
       style="opacity:0.40206185;fill:url(#radialGradient3012);fill-opacity:1;fill-rule:nonzero;stroke:none;stroke-width:1;marker:none;visibility:visible;display:inline;overflow:visible" />
    <path
       d="m -1559.2523,-150.68038 c 0,0 0,478.33079 0,478.33079 -142.8742,0.90045 -345.4002,-107.16966 -345.4002,-239.196175 0,-132.026537 159.4368,-239.134595 345.4002,-239.134615 z"
       id="path8881"
       style="opacity:0.40206185;fill:url(#radialGradient3014);fill-opacity:1;fill-rule:nonzero;stroke:none;stroke-width:1;marker:none;visibility:visible;display:inline;overflow:visible" />
  </g>
  <path
     d="m 1.8239392,18.5 20.6760618,0.16178 c -0.215925,1.258609 -0.463659,2.787021 -0.653107,3.83822 -6.681723,0 -19.6493311,0 -19.6493311,0 -0.1794621,0 -0.323939,-0.143455 -0.323939,-0.321648 L 1.5000001,18.821648 C 1.5000001,18.643456 1.6444769,18.5 1.8239392,18.5 z"
     id="rect8840"
     style="fill:url(#linearGradient2875);fill-opacity:1;fill-rule:nonzero;stroke:url(#linearGradient2877);stroke-width:1;stroke-linecap:round;stroke-linejoin:round;stroke-miterlimit:4;stroke-opacity:1;stroke-dasharray:none;stroke-dashoffset:0.06;marker:none;visibility:visible;display:inline;overflow:visible;enable-background:accumulate" />
  <path
     d="m 21.916,21.813 c 0.08621,-0.907829 0.435958,-2.737948 0.479007,-3.553058"
     id="path9017"
     style="fill:none;stroke:#666666;stroke-width:1;stroke-linecap:round;stroke-linejoin:miter;stroke-miterlimit:4;stroke-opacity:1;stroke-dasharray:none" />
  <path
     d="M 2.8509888,0.5 C 2.6643973,0.5 2.5191521,0.70856475 2.5191523,0.97279067 L 1.5000001,18.02721 c 0,0.264225 0.1596729,0.472791 0.3462641,0.47279 l 20.3074738,0 c 0.186589,1e-6 0.346263,-0.208565 0.346263,-0.47279 L 21.360255,0.97279067 C 21.360255,0.70856475 21.215009,0.5 21.028417,0.5 l -18.1774282,0 z"
     id="rect8064"
     style="fill:url(#radialGradient2951-8);fill-opacity:1;fill-rule:nonzero;stroke:url(#linearGradient2953-4);stroke-width:0.99974560999999995;stroke-linecap:round;stroke-linejoin:round;stroke-miterlimit:4;stroke-opacity:1;stroke-dasharray:none;stroke-dashoffset:0.06000000000000000;marker:none;visibility:visible;display:inline;overflow:visible;enable-background:accumulate;color:#000000" />
  <path
     d="M 2.9098933,21.624678 2.7159373,19.489333"
     id="path3267"
     style="opacity:0.2;fill:none;stroke:#020201;stroke-width:1;stroke-linecap:square;stroke-linejoin:miter;stroke-miterlimit:4;stroke-opacity:1;stroke-dasharray:none" />
  <text
     x="4.9724398"
     y="12.155731"
     transform="scale(1.0258507,0.97480071)"
     id="text3323"
     xml:space="preserve"
     style="font-size:10.90930271px;font-style:normal;font-variant:normal;font-weight:normal;font-stretch:normal;opacity:0.4;fill:#141414;fill-opacity:1;stroke:none;font-family:Serif;-inkscape-font-specification:Serif"><tspan
       x="4.9724398"
       y="12.155731"
       id="tspan3325"
       style="fill:#141414;fill-opacity:1">Aa</tspan></text>
  <text
     x="4.9724398"
     y="13.181581"
     transform="scale(1.0258507,0.97480071)"
     id="text2537"
     xml:space="preserve"
     style="font-size:10.90930271px;font-style:normal;font-variant:normal;font-weight:normal;font-stretch:normal;fill:url(#radialGradient2863);fill-opacity:1;stroke:none;font-family:Serif;-inkscape-font-specification:Serif"><tspan
       x="4.9724398"
       y="13.181581"
       id="tspan2539"
       style="fill:url(#radialGradient2863);fill-opacity:1">Aa</tspan></text>
  <path
     d="m 3.8527566,1.4999999 c -0.1868357,0 -0.332271,0.2085416 -0.3322708,0.4727383 L 2.4999999,17.027262 c 0,0.264196 0.159882,0.472739 0.3467174,0.472738 l 18.3065647,0 c 0.186835,1e-6 0.346717,-0.208542 0.346717,-0.472738 L 20.358762,1.9727382 c 0,-0.2641967 -0.145436,-0.4727383 -0.332272,-0.4727383 l -16.1737334,0 z"
     id="path2858"
     style="opacity:0.2;fill:none;stroke:url(#linearGradient2859);stroke-width:0.99999994;stroke-linecap:round;stroke-linejoin:round;stroke-miterlimit:4;stroke-opacity:1;stroke-dasharray:none;stroke-dashoffset:0.06;marker:none;visibility:visible;display:inline;overflow:visible;enable-background:accumulate" />
</svg>

<?xml version="1.0" encoding="UTF-8" standalone="no"?>
<!-- Created with Inkscape (http://www.inkscape.org/) -->
<svg id="svg5526" xmlns:rdf="http://www.w3.org/1999/02/22-rdf-syntax-ns#" xmlns="http://www.w3.org/2000/svg" height="24" width="24" version="1.0" xmlns:cc="http://creativecommons.org/ns#" xmlns:xlink="http://www.w3.org/1999/xlink" xmlns:dc="http://purl.org/dc/elements/1.1/">
 <metadata id="metadata48">
  <rdf:RDF>
   <cc:Work rdf:about="">
    <dc:format>image/svg+xml</dc:format>
    <dc:type rdf:resource="http://purl.org/dc/dcmitype/StillImage"/>
   </cc:Work>
  </rdf:RDF>
 </metadata>
 <defs id="defs5528">
  <linearGradient id="linearGradient8867">
   <stop id="stop8869" style="stop-color:#eee" offset="0"/>
   <stop id="stop8871" style="stop-color:#d9d9da" offset="1"/>
  </linearGradient>
  <linearGradient id="linearGradient5060">
   <stop id="stop5062" offset="0"/>
   <stop id="stop5064" style="stop-opacity:0" offset="1"/>
  </linearGradient>
  <linearGradient id="linearGradient3010" y2="609.51" gradientUnits="userSpaceOnUse" x2="302.86" gradientTransform="matrix(2.7744 0 0 1.9697 -1892.2 -872.89)" y1="366.65" x1="302.86">
   <stop id="stop5050" style="stop-opacity:0" offset="0"/>
   <stop id="stop5056" offset=".5"/>
   <stop id="stop5052" style="stop-opacity:0" offset="1"/>
  </linearGradient>
  <radialGradient id="radialGradient3012" xlink:href="#linearGradient5060" gradientUnits="userSpaceOnUse" cy="486.65" cx="605.71" gradientTransform="matrix(2.7744 0 0 1.9697 -1891.6 -872.89)" r="117.14"/>
  <radialGradient id="radialGradient3014" xlink:href="#linearGradient5060" gradientUnits="userSpaceOnUse" cy="486.65" cx="605.71" gradientTransform="matrix(-2.7744 0 0 1.9697 112.76 -872.89)" r="117.14"/>
  <linearGradient id="linearGradient2859" y2="17.016" gradientUnits="userSpaceOnUse" x2="22.9" gradientTransform="matrix(1.0137 0 0 0.999 -1.2082 1.0002)" y1=".00031490" x1="4.2847">
   <stop id="stop8999" style="stop-color:#cdcdcd" offset="0"/>
   <stop id="stop3642" style="stop-color:#cdcdcd;stop-opacity:.24706" offset="1"/>
  </linearGradient>
  <radialGradient id="radialGradient2863" xlink:href="#linearGradient8867" gradientUnits="userSpaceOnUse" cy="25.435" cx="17.949" gradientTransform="matrix(1.3584 -1.4275 2.3207 2.4634 -66.633 -25.282)" r="13.428"/>
  <linearGradient id="linearGradient2875" y2="36.402" xlink:href="#linearGradient8867" gradientUnits="userSpaceOnUse" x2="23.638" gradientTransform="matrix(.46233 0 0 .32361 1.3242 7.6916)" y1="38.423" x1="23.638"/>
  <linearGradient id="linearGradient2877" y2="-.17325" gradientUnits="userSpaceOnUse" x2="12.026" gradientTransform="matrix(1.01 0 0 .89808 -.14632 2.1969)" y1="20.38" x1="12.026">
   <stop id="stop3630" style="stop-color:#791235" offset="0"/>
   <stop id="stop3632" style="stop-color:#dd3b27" offset="1"/>
  </linearGradient>
  <radialGradient id="radialGradient2951-8" gradientUnits="userSpaceOnUse" cx="39.651" cy="18.619" r="20.714" gradientTransform="matrix(.038605 1.7679 -2.3167 .0023325 39.258 -72.388)">
   <stop id="stop3244-0" style="stop-color:#f8b17e" offset="0"/>
   <stop id="stop3246-9-4" style="stop-color:#e35d4f" offset=".31210"/>
   <stop id="stop3248-3-8" style="stop-color:#c6262e" offset=".57054"/>
   <stop id="stop3250-9-0" style="stop-color:#690b54" offset="1"/>
  </radialGradient>
  <linearGradient id="linearGradient2953-4" y2="1" gradientUnits="userSpaceOnUse" y1="38.246" gradientTransform="matrix(.53871 0 0 .49661 -.77239 -.52010)" x2="24.009" x1="24.009">
   <stop id="stop2492-9" style="stop-color:#791235" offset="0"/>
   <stop id="stop2494-6" style="stop-color:#dd3b27" offset="1"/>
  </linearGradient>
 </defs>
 <g id="g8875" transform="matrix(.010738 0 0 .0073241 21.55 21.6)">
  <rect id="rect8877" style="opacity:.40206;fill:url(#linearGradient3010)" height="478.36" width="1339.6" y="-150.7" x="-1559.3"/>
  <path id="path8879" style="opacity:.40206;fill:url(#radialGradient3012)" d="m-219.62-150.68v478.33c142.87 0.90045 345.4-107.17 345.4-239.2s-159.44-239.13-345.4-239.13z"/>
  <path id="path8881" style="opacity:.40206;fill:url(#radialGradient3014)" d="m-1559.3-150.68v478.33c-142.87 0.90045-345.4-107.17-345.4-239.2s159.44-239.13 345.4-239.13z"/>
 </g>
 <path id="rect8840" style="stroke-linejoin:round;stroke-dashoffset:.06;stroke:url(#linearGradient2877);stroke-linecap:round;fill:url(#linearGradient2875)" d="m1.8239 18.5 20.676 0.16178c-0.21592 1.2586-0.46366 2.787-0.65311 3.8382h-19.649c-0.17946 0-0.32394-0.14346-0.32394-0.32165l-0.374-3.357c0-0.179 0.1445-0.322 0.3239-0.322z"/>
 <path id="path9017" style="stroke:#666;stroke-linecap:round;fill:none" d="m21.916 21.813c0.08621-0.90783 0.43596-2.7379 0.47901-3.5531"/>
 <path id="rect8064" style="stroke-linejoin:round;stroke-width:.99975;color:#000000;stroke-dashoffset:.06;stroke:url(#linearGradient2953-4);stroke-linecap:round;fill:url(#radialGradient2951-8)" d="m2.851 0.5c-0.1866 0-0.3318 0.20856-0.3318 0.47279l-1.0192 17.054c0 0.26422 0.15967 0.47279 0.34626 0.47279h20.307c0.18659 0.000001 0.34626-0.20856 0.34626-0.47279l-1.139-17.054c0-0.26444-0.145-0.473-0.332-0.473h-18.177z"/>
 <path id="path3267" style="opacity:.2;stroke:#020201;stroke-linecap:square;fill:none" d="m2.9099 21.625-0.194-2.136"/>
 <text id="text3323" style="opacity:.4;font-size:10.909px;font-family:Serif;fill:#141414" xml:space="preserve" transform="scale(1.0259 .97480)" y="12.155731" x="4.9724398"><tspan id="tspan3325" y="12.155731" x="4.9724398" style="fill:#141414">Aa</tspan></text>
 <text id="text2537" style="font-size:10.909px;font-family:Serif;fill:url(#radialGradient2863)" xml:space="preserve" transform="scale(1.0259 .97480)" y="13.181581" x="4.9724398"><tspan id="tspan2539" y="13.181581" x="4.9724398" style="fill:url(#radialGradient2863)">Aa</tspan></text>
 <path id="path2858" style="opacity:.2;stroke-linejoin:round;stroke-dashoffset:.06;stroke:url(#linearGradient2859);stroke-linecap:round;fill:none" d="m3.8528 1.5c-0.18684 0-0.33227 0.20854-0.33227 0.47274l-1.0205 15.054c0 0.2642 0.15988 0.47274 0.34672 0.47274h18.307c0.18684 0.000001 0.34672-0.20854 0.34672-0.47274l-1.142-15.054c0-0.2642-0.14544-0.47274-0.33227-0.47274h-16.174z"/>
</svg>
